X:1
T:Arnes sång
T:W. Peterson-Berger (1867-1942)
T:Björnstjerne Björnson
T:Arnes sång
T:Ur "Arne"
T:©CPDL Edition may be freely distributed, duplicated, performed and recorded PA Aglert
T:©CPDL Edition may be freely distributed, duplicated, performed and recorded PA Aglert
C:W. Peterson-Berger (1867-1942)
Z:©CPDL Edition may be freely distributed, duplicated, performed and recorded
Z:PA Aglert
%%score [ ( 1 2 ) ( 3 4 ) ]
L:1/8
Q:1/4=90
M:3/4
K:F
V:1 treble nm="MusicXML Part"
V:2 treble 
V:3 bass nm="MusicXML Part"
V:4 bass 
V:1
"^Varmt; ej långsamt"!p!!<(! C F!<)! G | A2 cA AG | F3 F GA | B2 dc G>B | B2 AC FG | A2 GF Bc | %6
w: 1.Den makt som|gav mig min lil- la|sång, den gjor- de|livs- gång- ens fröjd och|smär- ta till sol och|regn för mitt un- ga|
w: 2.Den makt som|gav mig min lil- la|sång den gav mig|fränd- skap med var- je|läng- tan allt hög- re|spän- des min eg- en|
w: 3.Den makt som|gav mig min lil- la|sång må ge mig|styr- ka att nå de|and- ra och spri- da|tröst där i flock vi|
 d2 BA GF | (FE) DC FG | A3!p! A AA | AA z!mf! c B^F | G3!<(! G e!<)!d | c2 FA!>(! GB | %12
w: hjär- ta, där vå- rens|sådd _ skall bli skörd en|gång. Vad än mig|sked- de, det bröt ej|ned; med sång det|led- de till hjär- te-|
w: träng- tan när hälst min|väg _ var av hin- der|trång. Och se- ger|vann jag om än det|sved; min hem- väg|fann jag till hjär- te-|
w: vand- ra, om vand- rings-|da- * gen blev het och|lång. Ej stör- re|gam- man blev ä- del|sed än sju- nga|sam- man i hjär- te-|
 A3!>)!!p! A AA | AA z!mf! c B^F | G3!<(! G!<)!!f! ed |"^rit." (cf) cA (3:2:2A2 G | F3 z z2 |] %17
w: fred. Vad än mig|sked- de, det bröt ej|ned; med sång det|led- * de till hjär- te-|fred.|
w: fred. Och se- ger|vann jag om än det|sved; min hem- väg|fann _ jag till hjär- te-|fred.|
w: fred. Ej stör- re|gam- man blev ä- del|sed än sju- nga|sam- * man i hjär- te-|fred.|
V:2
 C F E | F2 FF EE | F3 F FF | (FA) GE FC | F2 FC FE | _E2 EE EE | !courtesy!=E2 DD DD | C2 B,C DE | %8
 E3 G F^C | ED z _E DE | G3 G ^GG | A2 FF FE | E3 G F^C | ED z _E DE | G3 G ^GG | %15
 A2 FF (3:2:2D2 E | F3 z z2 |] %17
V:3
!p! C C C | C2 CC CB, | A,3 A, DD | D2 B,B, B,>D | D2 CC CC | C2 B,A, G,A, | F,2 F,F, G,_A, | %7
 G,2 F,E, B,B, | A,3!p! E, F,G, | A,A, z!mf! A, B,C | D3!<(! D!<)! EF | F2 CC!>(! B,G, | %12
 E,3!>)!!p! E, F,G, | A,A, z!mf! A, B,C | D3!<)!!<(! D!f! EF |"^rit." F2 A,C (3:2:2B,2 B, | %16
 A,3 z z2 |] %17
V:4
 C A, G, | F,2 A,F, C,C, | D,3 D, B,A, | (G,F,) E,C, D,E, | F,2 F,C A,G, | F,2 F,F, F,F, | %6
 B,,2 B,,B,, =B,,B,, | C,2 C,C, C,C, | ^C,3 C, D,E, | F,F, z ^F, G,A, | B,3 B, =B,B, | %11
 C2 A,F, C,C, | ^C,3 C, D,E, | F,F, z ^F, G,A, | B,3 B, =B,B, | C2 C,C, (3:2:2C,2 C, | F,3 z z2 |] %17

